!!!!SEGMENT: pl-kk--kk-i-7--005_anonim--ave-hierarchia.krn
!!!id: 16xx:795
!!!COM: Anonim
!!!COM-rism: pe30004985
!!!CDT:
!!!CNT:
!!!OTL: Ave Hierarchia
!!!PDT:
!!!SMS-siglum: PL-Kk
!!!SMS-shelfmark: Kk.I.7
!!!NIFC-rismID: 300258082
!!!URL-scan: http://repozytorium.nifc.pl/skany/pl-kk-nut--i-7
!!!ONB-nifc: UWAGA: C (skan 0006, s.6-7), A (0093, s.6-7), T(0170-0171, s.5-6), B(0258, s.7). Następny utwór: Ave Maria
!!!SMS-variant:
!!!SMS-altvar:
**kern	**text	**text	**text	**text	**text	**kern	**text	**text	**text	**text	**text	**kern	**text	**text	**text	**text	**text	**kern	**text	**text	**text	**text	**text
*part4	*part4	*part4	*part4	*part4	*part4	*part3	*part3	*part3	*part3	*part3	*part3	*part2	*part2	*part2	*part2	*part2	*part2	*part1	*part1	*part1	*part1	*part1	*part1
*staff4	*staff4	*staff4	*staff4	*staff4	*staff4	*staff3	*staff3	*staff3	*staff3	*staff3	*staff3	*staff2	*staff2	*staff2	*staff2	*staff2	*staff2	*staff1	*staff1	*staff1	*staff1	*staff1	*staff1
*I"BASSUS.	*	*	*	*	*	*I"TENOR.	*	*	*	*	*	*I"ALTVS.	*	*	*	*	*	*I"CANTVS.	*	*	*	*	*
*I'B	*	*	*	*	*	*I'T	*	*	*	*	*	*I'A	*	*	*	*	*	*I'S	*	*	*	*	*
*clefF4	*	*	*	*	*	*clefC4	*	*	*	*	*	*clefC4	*	*	*	*	*	*clefC3	*	*	*	*	*
*k[b-]	*	*	*	*	*	*k[b-]	*	*	*	*	*	*k[b-]	*	*	*	*	*	*k[b-]	*	*	*	*	*
*M2/1	*	*	*	*	*	*M2/1	*	*	*	*	*	*M2/1	*	*	*	*	*	*M2/1	*	*	*	*	*
*met(C|)	*	*	*	*	*	*met(C|)	*	*	*	*	*	*met(C|)	*	*	*	*	*	*met(C|)	*	*	*	*	*
=1-	=1-	=1-	=1-	=1-	=1-	=1-	=1-	=1-	=1-	=1-	=1-	=1-	=1-	=1-	=1-	=1-	=1-	=1-	=1-	=1-	=1-	=1-	=1-
1F\	A-	Ma-	Tu	Vir-	Tu	1F/	A-	Ma-	Tu	Vir-	Tu	1F/	A-	Ma-	Tu	Vir-	Tu	1c\	A-	Ma-	Tu	Vir-	Tu
*	*	*	*	*	*	*	*	*	*	*	*	*	*	*	*	*	*	*2\right	*	*	*	*	*
!	!	!	!	!	!	!LO:TX:t=P:problem:kreska pseudotaktowa	!	!	!	!	!	!	!	!	!	!	!	!	!	!	!	!	!
2D/	-ue	ri-	es	-go	mun-	1F/	-ue	-ri-	es	-go	mun-	2F/	-ue	-ri-	es	-go	mun-	2d\	-ue	-ri-	es	-go	mun-
*2\right	*	*	*	*	*	*	*	*	*	*	*	*	*	*	*	*	*	*	*	*	*	*	*
2.F\	Hie-	-a	Cae-	DE-	.	.	.	.	.	.	.	[y2A/	Hie-	-a	Cae-	DE-	-di	4c/	.	.	.	DE-	.
!	!	!	!	!	!	!	!	!	!	!	!	!	!	!	!	!	!	!LO:TX:t=P:problem:kreska pseudotaktowa	!	!	!	!	!
.	.	.	.	.	.	.	.	.	.	.	.	.	.	.	.	.	.	4B-/	.	.	.	.	.
=2-	=2-	=2-	=2-	=2-	=2-	=2-	=2-	=2-	=2-	=2-	=2-	=2-	=2-	=2-	=2-	=2-	=2-	=2-	=2-	=2-	=2-	=2-	=2-
!	!	!	!	!	!	!	!	!	!	!	!	!LO:N:xstem:cue	!	!	!	!	!	!	!	!	!	!	!
.	.	.	.	.	.	1A\	Hie-	-a	Cae-	DE-	-di	4A\]	.	.	.	.	.	2c\	Hie-	.	.	-O	-di
4E\	.	.	.	.	.	.	.	.	.	.	.	4G/	.	.	.	.	.	.	.	.	.	.	.
4D/	.	.	.	.	.	.	.	.	.	.	.	4F/	.	.	-li	-O	o-	2.d\	-rar-	-a	Cae-	ple-	O-
!LO:TX:t=P:problem:kreska pseudotaktowa	!	!	!	!	!	!	!	!	!	!	!	!LO:TX:t=P:problem:kreska pseudotaktowa	!	!	!	!	!	!	!	!	!	!	!
4C/	.	.	.	.	.	.	.	.	.	.	.	4E/	.	.	.	.	.	.	.	.	.	.	.
2BB-/	.	.	.	.	di	1B-\	-rar-	be-	-li	-O	o-	2D/	-rar-	.	.	ple-	-cel-	.	.	.	.	.	.
.	.	.	.	.	.	.	.	.	.	.	.	.	.	.	.	.	.	4c/	.	.	-li	.	-cel-
2GG/	-rar-	be-	-li	-O	O-	.	.	.	.	.	.	2.G/	.	.	por-	.	.	4B-/	.	.	por-	.	.
!	!	!	!	!	!	!	!	!	!	!	!	!	!	!	!	!	!	!LO:TX:t=P:problem:kreska pseudotaktowa	!	!	!	!	!
.	.	.	.	.	.	.	.	.	.	.	.	.	.	.	.	.	.	4A/	.	.	.	.	.
=3-	=3-	=3-	=3-	=3-	=3-	=3-	=3-	=3-	=3-	=3-	=3-	=3-	=3-	=3-	=3-	=3-	=3-	=3-	=3-	=3-	=3-	=3-	=3-
!LO:TX:t=P:problem:kreska pseudotaktowa	!	!	!	!	!	!	!	!	!	!	!	!	!	!	!	!	!	!	!	!	!	!	!
0C/	-chi-	-a-	por-	ple-	-cel-	0c\	-chi-	-a-	por-	ple-	-cel-	.	.	.	.	.	.	2G/	.	be-	.	.	.
.	.	.	.	.	.	.	.	.	.	.	.	4F/	.	.	.	.	.	.	.	.	.	.	.
.	.	.	.	.	.	.	.	.	.	.	.	1F/	.	be-	.	.	.	2A/	.	-a-	.	.	.
.	.	.	.	.	.	.	.	.	.	.	.	.	.	.	.	.	.	1G/	-chi-	.	.	.	.
!	!	!	!	!	!	!	!	!	!	!	!	!LO:TX:t=P:problem:kreska pseudotaktowa	!	!	!	!	!	!	!	!	!	!	!
.	.	.	.	.	.	.	.	.	.	.	.	2E/	-chi-	-a-	.	.	.	.	.	.	.	.	.
=4-	=4-	=4-	=4-	=4-	=4-	=4-	=4-	=4-	=4-	=4-	=4-	=4-	=4-	=4-	=4-	=4-	=4-	=4-	=4-	=4-	=4-	=4-	=4-
!	!	!	!	!	!	!LO:TX:t=P:problem:kreska pseudotaktowa	!	!	!	!	!	!	!	!	!	!	!	!LO:TX:t=P:problem:oddech jako rozdzielacz słów, przeważnie na wysokości dźwięku poprzedzającego:global	!	!	!	!	!
2FF,/	-a	-ta	-ta,	-na,	-lus;	0c\,	-a,	-ta	-ta,	-na,	-lus,	1F/	-a,	-ta,	-ta,	na,	lus	2F,/	-a	-ta	-ta,	-na	-lus,
1F\	coe-	do-	ex	Tu	per	.	.	.	.	.	.	.	.	.	.	.	.	1A/	Coe-	do-	ex	Tu	per
.	.	.	.	.	.	.	.	.	.	.	.	2r	.	.	.	.	.	.	.	.	.	.	.
!LO:TX:t=P:problem:kreska pseudotaktowa	!	!	!	!	!	!	!	!	!	!	!	!	!	!	!	!	!	!LO:TX:t=P:problem:kreska pseudotaktowa	!	!	!	!	!
2E\	.	-ce	Te	Lu-	Te	.	.	.	.	.	.	1c\	coe-	do-	ex	Tu	per	2G/	-le-	-ce	Te	lu-	Te
=5-	=5-	=5-	=5-	=5-	=5-	=5-	=5-	=5-	=5-	=5-	=5-	=5-	=5-	=5-	=5-	=5-	=5-	=5-	=5-	=5-	=5-	=5-	=5-
1D\	-le-	nos	lux	-na	vi-	1d\	Coe-	do-	ex	Tu	per	.	.	.	.	.	.	1F/	-ſtis	nos	lux	-na	vi-
*	*	*	*	*	*	*	*	*	*	*	*	*2\right	*	*	*	*	*	*	*	*	*	*	*
!	!	!	!	!	!	!	!	!	!	!	!	!LO:TX:t=P:problem:kreska pseudotaktowa	!	!	!	!	!	!	!	!	!	!	!
.	.	.	.	.	.	.	.	.	.	.	.	2B-\	-le-	-ce	.	.	.	.	.	.	.	.	.
!LO:TX:t=P:problem:kreska pseudotaktowa	!	!	!	!	!	!	!	!	!	!	!	!	!	!	!	!	!	!LO:TX:t=P:problem:kreska pseudotaktowa	!	!	!	!	!
1C/	-ſtis	.	est	.	-vit	1e\	-le-	-ce	Te	Lu-	Tw	1c\	-ſtis	.	Te	Lu-	Te	1G/	.	.	est	se-	-vit
=6-	=6-	=6-	=6-	=6-	=6-	=6-	=6-	=6-	=6-	=6-	=6-	=6-	=6-	=6-	=6-	=6-	=6-	=6-	=6-	=6-	=6-	=6-	=6-
!	!	!	!	!	!	!LO:TX:t=P:problem:kreska pseudotaktowa	!	!	!	!	!	!	!	!	!	!	!	!	!	!	!	!	!
2.D/	et	do-	or-	se-	Tal-	1f\	-ſtis	nos	lux	-na	vi-	1.A\	.	nos	lux	-na	vi-	2.F/	et	man-	or-	-re-	Tel-
4E\	.	-ce	.	.	.	.	.	.	.	.	.	.	.	.	.	.	.	4G/	.	.	.	.	.
2F\	.	nos	.	-re-	.	1c\	et	man-	eſt	se-	-vit	.	.	.	.	.	.	4A/	.	.	.	.	.
.	.	.	.	.	.	.	.	.	.	.	.	.	.	.	.	.	.	4B-/	.	.	.	.	.
2E\	.	man-	.	.	.	.	.	.	.	.	.	2G/	.	.	.	.	.	1c\	.	.	.	.	.
=7-	=7-	=7-	=7-	=7-	=7-	=7-	=7-	=7-	=7-	=7-	=7-	=7-	=7-	=7-	=7-	=7-	=7-	=7-	=7-	=7-	=7-	=7-	=7-
*lig	*	*	*	*	*	*lig	*	*	*	*	*	*	*	*	*	*	*	*	*	*	*	*	*
1F\	pi-	-da-	.	.	.	1A\	pi-	-da-	or-	-re-	tel-	2F/	et	.	.	se-	.	.	.	.	.	.	.
!	!	!	!	!	!	!	!	!	!	!	!	!	!	!	!	!	!	!LO:TX:t=P:problem:kreska pseudotaktowa	!	!	!	!	!
.	.	.	.	.	.	.	.	.	.	.	.	2A/	.	man-	est	.	-vit	2f\	.	.	.	.	.
1G\	.	.	.	.	.	1B-\	.	.	.	.	.	1G/	pi-	-da-	or-	-re-	tel-	1d\	pi-	-da-	.	.	.
*Xlig	*	*	*	*	*	*Xlig	*	*	*	*	*	*	*	*	*	*	*	*	*	*	*	*	*
=8-	=8-	=8-	=8-	=8-	=8-	=8-	=8-	=8-	=8-	=8-	=8-	=8-	=8-	=8-	=8-	=8-	=8-	=8-	=8-	=8-	=8-	=8-	=8-
!LO:TX:t=P:problem:kreska pseudotaktowa	!	!	!	!	!	!LO:TX:t=P:problem:kreska pseudotaktowa	!	!	!	!	!	!	!	!	!	!	!	!LO:TX:t=P:problem:kreska pseudotaktowa	!	!	!	!	!
0C/	-a	-ta	ta,	-na,	-lus;	0c\,	-a,	-ta	-ta;	-na;	-lus;	0G/,	-a	-ta	-ta,	-na,	-l(us);	0e\,	-a,	-ta,	ta	-na,	-lus,
=9-	=9-	=9-	=9-	=9-	=9-	=9-	=9-	=9-	=9-	=9-	=9-	=9-	=9-	=9-	=9-	=9-	=9-	=9-	=9-	=9-	=9-	=9-	=9-
1G\	DE-	no-	ad	Per	in	1B-\	DE-	no-	ad	per	In	1G/	DE-	no-	ad	per	in	1d\	DE-	no-	ad	per	in
!LO:TX:t=P:problem:kreska pseudotaktowa	!	!	!	!	!	!LO:TX:t=P:problem:kreska pseudotaktowa	!	!	!	!	!	!	!	!	!	!	!	!LO:TX:t=P:problem:kreska pseudotaktowa	!	!	!	!	!
1C/	-I	-vae	Cae-	vo-	Te	1G/	-I	-vae	cae-	vo-	Te	2G/	-I	-vae	Cae-	vo-	Te	1e\	-I	-vae	Cae-	vo-	Te
.	.	.	.	.	.	.	.	.	.	.	.	2.c\	Mo-	leg-	-lum	-ta	est	.	.	.	.	.	.
=10-	=10-	=10-	=10-	=10-	=10-	=10-	=10-	=10-	=10-	=10-	=10-	=10-	=10-	=10-	=10-	=10-	=10-	=10-	=10-	=10-	=10-	=10-	=10-
*	*	*	*	*	*	*	*	*	*	*	*	*	*	*	*	*	*	*lig	*	*	*	*	*
2.F\	Mo-	le-	.	-ta	est	1A\	Mo-	le-	-lum	-ta	eſt	.	.	.	.	.	.	1c\	Mo-	le-	-lum	-ta	eſt
.	.	.	.	.	.	.	.	.	.	.	.	4B-\	.	.	.	.	.	.	.	.	.	.	.
.	.	.	.	.	.	.	.	.	.	.	.	4A/	.	.	.	.	.	.	.	.	.	.	.
!	!	!	!	!	!	!	!	!	!	!	!	!LO:TX:t=P:problem:kreska pseudotaktowa	!	!	!	!	!	!	!	!	!	!	!
4E\	.	.	.	.	.	.	.	.	.	.	.	4G/	.	.	.	.	.	.	.	.	.	.	.
4D/	.	.	.	.	te-	1B-\	-nar-	-gis	dis-	mil-	te-	2F/	nar-	-is	dis-	mil-	te-	1d\	.	.	.	.	.
4C/	.	.	.	.	.	.	.	.	.	.	.	.	.	.	.	.	.	.	.	.	.	.	.
!LO:TX:t=P:problem:kreska pseudotaktowa	!	!	!	!	!	!	!	!	!	!	!	!	!	!	!	!	!	!	!	!	!	!	!
2BB-/	.	.	.	mil-	-nel-	.	.	.	.	.	.	2D/	.	.	.	.	.	.	.	.	.	.	.
*	*	*	*	*	*	*	*	*	*	*	*	*	*	*	*	*	*	*Xlig	*	*	*	*	*
=11-	=11-	=11-	=11-	=11-	=11-	=11-	=11-	=11-	=11-	=11-	=11-	=11-	=11-	=11-	=11-	=11-	=11-	=11-	=11-	=11-	=11-	=11-	=11-
!LO:SIC:v:t=custos AA	!	!	!	!	!	!	!	!	!	!	!	!	!	!	!	!	!	!	!	!	!	!	!
*	*	*	*	*	*	*lig	*	*	*	*	*	*	*	*	*	*	*	*	*	*	*	*	*
2C/	-nar-	-gis	-lum	-le-	-ne-	1A\	-chi-	gra-	-tor-	-le-	-nell-	2E/	.	.	.	.	.	1c\	-nar-	.	diſ-	mil-	te-
!LO:LB:g=original	!	!	!	!	!	!	!	!	!	!	!	!	!	!	!	!	!	!	!	!	!	!	!
2AA/	.	no-	dis-	.	.	.	.	.	.	.	.	1F/	-chi-	gra-	-tor-	-le-	-nel-	.	.	.	.	.	.
2BB-/	-chi-	-vaw	-tor-	.	.	1G/	.	.	.	.	.	.	.	.	.	.	.	2B-/	.	.	-tor-	-le-	-nel-
!	!	!	!	!	!	!	!	!	!	!	!	!	!	!	!	!	!	!LO:TX:t=P:problem:kreska pseudotaktowa	!	!	!	!	!
2C/	.	.	.	.	.	.	.	.	.	.	.	2E/	.	.	.	.	.	2G/	.	.	.	.	.
!	!	!	!	!	!	!	!	!	!	!	!	!	!	!	!	!	!	!LO:SIC:v:t=custos A	!	!	!	!	!
*	*	*	*	*	*	*Xlig	*	*	*	*	*	*	*	*	*	*	*	*	*	*	*	*	*
!	!	!	!	!	!	!	!	!	!	!	!	!	!	!	!	!	!	!LO:PB:g=original	!	!	!	!	!
=12-	=12-	=12-	=12-	=12-	=12-	=12-	=12-	=12-	=12-	=12-	=12-	=12-	=12-	=12-	=12-	=12-	=12-	=12-	=12-	=12-	=12-	=12-	=12-
!	!	!	!	!	!	!LO:TX:t=P:problem:kreska pseudotaktowa	!	!	!	!	!	!LO:TX:t=P:problem:kreska pseudotaktowa	!	!	!	!	!	!	!	!	!	!	!
!	!	!	!	!	!	!LO:SIC:v:t=custos E	!	!	!	!	!	!LO:SIC:v:t=custos c	!	!	!	!	!	!	!	!	!	!	!
2FF/	-a	le-	.	na	-lus	0F/	-a,	-ta,	-ta	-na	-us	0F/	-a	-ta	-ta	-na	lus	2A/	.	-gis	.	.	.
!LO:TX:t=P:problem:kreska pseudotaktowa	!	!	!	!	!	!	!	!	!	!	!	!	!	!	!	!	!	!	!	!	!	!	!
2AA/	Mo-	-gis	.	mil-	te-	.	.	.	.	.	.	.	.	.	.	.	.	2c/	.	.	.	.	.
1BB-/	-nar-	gra-	.	-le-	-nel-	.	.	.	.	.	.	.	.	.	.	.	.	1d\	-chi-	gra-	.	.	.
!	!	!	!	!	!	!LO:PB:g=original	!	!	!	!	!	!LO:PB;g=original	!	!	!	!	!	!	!	!	!	!	!
=13-	=13-	=13-	=13-	=13-	=13-	=13-	=13-	=13-	=13-	=13-	=13-	=13-	=13-	=13-	=13-	=13-	=13-	=13-	=13-	=13-	=13-	=13-	=13-
!	!	!	!	!	!	!	!	!	!	!	!	!	!	!	!	!	!	!LO:TX:t=P:problem:kreska pseudotaktowa	!	!	!	!	!
1C/	-chi-	.	.	.	.	1E/	res-	fac	cor-	Te	con-	2r	.	.	.	.	.	1e\	-a	-ta	-ta	-na	-lus
!	!	!	!	!	!	!	!	!	!	!	!	!LO:TX:t=P:problem:kreska pseudotaktowa	!	!	!	!	!	!	!	!	!	!	!
.	.	.	.	.	.	.	.	.	.	.	.	2c\	re-	fac	Cor-	Te	Con-	.	.	.	.	.	.
!LO:TX:t=P:problem:kreska pseudotaktowa	!	!	!	!	!	!	!	!	!	!	!	!	!	!	!	!	!	!	!	!	!	!	!
1D\	-a	-ta	-ta	na	-lus,	1F/	-pi-	ser-	-da	no-	-ce-	2B-\	-ſpi-	ser-	.	no-	-ce-	2r	.	.	.	.	.
!	!	!	!	!	!	!	!	!	!	!	!	!LO:TX:t=P:problem:kreska pseudotaktowa	!	!	!	!	!	!LO:TX:t=P:problem:kreska pseudotaktowa	!	!	!	!	!
.	.	.	.	.	.	.	.	.	.	.	.	2A/	-ce	-va-	-da	.	.	2A/	res-	fac	cor-	Te	con-
=14-	=14-	=14-	=14-	=14-	=14-	=14-	=14-	=14-	=14-	=14-	=14-	=14-	=14-	=14-	=14-	=14-	=14-	=14-	=14-	=14-	=14-	=14-	=14-
!LO:TX:t=P:problem:kreska pseudotaktowa	!	!	!	!	!	!LO:TX:t=P:problem:kreska pseudotaktowa	!	!	!	!	!	!	!	!	!	!	!	!	!	!	!	!	!
1r	.	.	.	.	.	1G/	.	.	no-	-stra	-ptus	2.G/	nos	-re	no-	.	.	2B-/	-pi-	ser-	-da	no-	-ce-
.	.	.	.	.	.	.	.	.	.	.	.	.	.	.	.	.	.	1c\	-ce	-va-	no-	-stra	-pt(us)
.	.	.	.	.	.	.	.	.	.	.	.	4F/	di-	ra-	.	.	.	.	.	.	.	.	.
2r	.	.	.	.	.	1A\	-ce	-va-	-stra	.	ag-	1E/	-a	-ta	-stra	-stra	-ptus	.	.	.	.	.	.
2AA/	re-	nos	Cor-	Te	con-	.	.	.	.	.	.	.	.	.	.	.	.	1d\	nos	-re	.	Ca-	ag-
=15-	=15-	=15-	=15-	=15-	=15-	=15-	=15-	=15-	=15-	=15-	=15-	=15-	=15-	=15-	=15-	=15-	=15-	=15-	=15-	=15-	=15-	=15-	=15-
*	*	*	*	*	*	*lig	*	*	*	*	*	*	*	*	*	*	*	*	*	*	*	*	*
2BB-/	-spi-	.	-da	no-	-cep-	1G/	nos	-re	por-	Ca-	-nel-	2r	.	.	.	.	.	.	.	.	.	.	.
!LO:TX:t=P:problem:kreska pseudotaktowa	!	!	!	!	!	!	!	!	!	!	!	!LO:TX:t=P:problem:kreska pseudotaktowa	!	!	!	!	!	!	!	!	!	!	!
2C/	.	.	.	.	.	.	.	.	.	.	.	2E/	ut	Vir-	por-	Ca-	Ag-	4c/	.	.	.	.	.
!	!	!	!	!	!	!	!	!	!	!	!	!	!	!	!	!	!	!LO:TX:t=P:problem:kreska pseudotaktowa	!	!	!	!	!
.	.	.	.	.	.	.	.	.	.	.	.	.	.	.	.	.	.	4B-/	.	.	.	.	.
!	!	!	!	!	!	!LO:TX:t=P:problem:kreska pseudotaktowa	!	!	!	!	!	!	!	!	!	!	!	!	!	!	!	!	!
1D\	-ce	ſer-	no-	-stra	-t(us)	1F/	.	.	.	.	.	1F/	e-	.	.	-mae-	-nel-	2A/	.	.	-stra	-mae-	-nel-
.	.	.	.	.	.	.	.	.	.	.	.	.	.	.	.	.	.	2.d\	nos	ra-	por-	.	.
*	*	*	*	*	*	*Xlig	*	*	*	*	*	*	*	*	*	*	*	*	*	*	*	*	*
=16-	=16-	=16-	=16-	=16-	=16-	=16-	=16-	=16-	=16-	=16-	=16-	=16-	=16-	=16-	=16-	=16-	=16-	=16-	=16-	=16-	=16-	=16-	=16-
*	*	*	*	*	*	*lig	*	*	*	*	*	*	*	*	*	*	*	*	*	*	*	*	*
2E\	nos	-va-	-stra	Ca-	ag-	1E/	Di-	ra-	.	-mae-	.	2G/	-ru-	.	.	.	.	.	.	.	.	.	.
.	.	.	.	.	.	.	.	.	.	.	.	.	.	.	.	.	.	4c/	.	.	.	.	.
1G\	.	-re	por-	-mae-	-ne-	.	.	.	.	.	.	2E/	.	.	.	.	.	1c\	Di-	.	.	.	.
.	.	.	.	.	.	1D/	.	.	.	.	.	1F/	-a-	.	.	.	.	.	.	.	.	.	.
!	!	!	!	!	!	!	!	!	!	!	!	!	!	!	!	!	!	!LO:TX:t=P:problem:kreska pseudotaktowa	!	!	!	!	!
2F\	Di-	ra-	.	.	.	.	.	.	.	.	.	.	.	.	.	.	.	2B-/	.	.	ta;	na	lus,
*	*	*	*	*	*	*Xlig	*	*	*	*	*	*	*	*	*	*	*	*	*	*	*	*	*
=17-	=17-	=17-	=17-	=17-	=17-	=17-	=17-	=17-	=17-	=17-	=17-	=17-	=17-	=17-	=17-	=17-	=17-	=17-	=17-	=17-	=17-	=17-	=17-
!LO:TX:t=P:problem:kreska pseudotaktowa	!	!	!	!	!	!LO:TX:t=P:problem:kreska pseudotaktowa	!	!	!	!	!	!	!	!	!	!	!	!LO:TX:t=P:problem:kreska pseudotaktowa	!	!	!	!	!
1G\	-a	-ta	-ta;	-pa	llus;	0C/	-a	-ta,	-ta,	-na	-lus;	0E/	-mur	-go	-ta,	-na	-lus;	1c\,	-a	-ta	in	O-	Tu-
2r	.	.	.	.	.	.	.	.	.	.	.	.	.	.	.	.	.	1c\	ut	Vir-	mor-	-rat,	-am
2C/	ut	Vir-	in	O-	Tu-	.	.	.	.	.	.	.	.	.	.	.	.	.	.	.	.	.	.
=18-	=18-	=18-	=18-	=18-	=18-	=18-	=18-	=18-	=18-	=18-	=18-	=18-	=18-	=18-	=18-	=18-	=18-	=18-	=18-	=18-	=18-	=18-	=18-
!	!	!	!	!	!	!	!	!	!	!	!	!	!	!	!	!	!	!LO:TX:t=P:problem:kreska pseudotaktowa	!	!	!	!	!
1D\	e-	-go	mor-	-rat,	-am	1F/	ut	vir-	in	O-	Tu-	1A\	ut	Vir-	in	O-	Tu-	1f\	e-	-go	-tis	sit	o-
!LO:TX:t=P:problem:kreska pseudotaktowa	!	!	!	!	!	!	!	!	!	!	!	!	!	!	!	!	!	!	!	!	!	!	!
1E\	-ru-	.	-tis	.	.	1G/	e-	-go	mor-	-rat,	-am	1G/	e-	.	mor-	-rat,	-am	2.e\	-ru-	Vir-	do-	in	-pem
.	.	.	.	.	.	.	.	.	.	.	.	.	.	.	.	.	.	4d\	.	.	-lo-	au-	im-
=19-	=19-	=19-	=19-	=19-	=19-	=19-	=19-	=19-	=19-	=19-	=19-	=19-	=19-	=19-	=19-	=19-	=19-	=19-	=19-	=19-	=19-	=19-	=19-
*	*	*	*	*	*	*lig	*	*	*	*	*	*	*	*	*	*	*	*	*	*	*	*	*
2.F\	-a-	Vir-	do-	sit	o-	1A\	-ru-	vir-	-tis	sit	o-	4F/	.	-go	-tis	sit	a-	1c\	-a-	-gi-	-ri-	-ri-	-plo-
.	.	.	.	.	.	.	.	.	.	.	.	4G/	.	.	.	.	.	.	.	.	.	.	.
.	.	.	.	.	.	.	.	.	.	.	.	4A/	.	.	.	.	.	.	.	.	.	.	.
!	!	!	!	!	!	!	!	!	!	!	!	!LO:TX:t=P:problem:kreska pseudotaktowa	!	!	!	!	!	!	!	!	!	!	!
4G\	.	-gi-	.	.	.	.	.	.	.	.	.	4B-\	.	.	.	.	.	.	.	.	.	.	.
2A\	.	.	-lo-	in	-pem	1F/	.	.	do-	in	-pem	2c\	.	.	do-	in	-pem	1f\,	-mur	-num	-bus	-b(us)	-rat
2D/	.	.	-ri-	au-	im-	.	.	.	.	.	.	2.d\	.	Vir-	-lo-	au-	im-	.	.	.	.	.	.
*	*	*	*	*	*	*Xlig	*	*	*	*	*	*	*	*	*	*	*	*	*	*	*	*	*
=20-	=20-	=20-	=20-	=20-	=20-	=20-	=20-	=20-	=20-	=20-	=20-	=20-	=20-	=20-	=20-	=20-	=20-	=20-	=20-	=20-	=20-	=20-	=20-
*lig	*	*	*	*	*	*lig	*	*	*	*	*	*	*	*	*	*	*	*	*	*	*	*	*
1A\	.	-num	-bus	-ri-	-plo-	1c\	-a-	-gi-	-lo-	au-	im-	.	.	.	.	.	.	2e\	e-	et	Cli-	Tu-	Pec-
.	.	.	.	.	.	.	.	.	.	.	.	4c\	.	.	.	.	.	.	.	.	.	.	.
!	!	!	!	!	!	!	!	!	!	!	!	!	!	!	!	!	!	!LO:TX:t=P:problem:kreska pseudotaktowa	!	!	!	!	!
.	.	.	.	.	.	.	.	.	.	.	.	1c\	-ru-	.	.	.	.	2f\	-ru-	.	.	-is	-ca-
1G\	.	.	.	.	.	1d\	.	.	-ri-	-ri-	-plo-	.	.	.	.	.	.	1g\	-a-	.	-en-	per	-tor
.	.	.	.	.	.	.	.	.	.	.	.	2B-\	-a-	-gi-	-ri-	-ri-	-plo-	.	.	.	.	.	.
*Xlig	*	*	*	*	*	*Xlig	*	*	*	*	*	*	*	*	*	*	*	*	*	*	*	*	*
=21-	=21-	=21-	=21-	=21-	=21-	=21-	=21-	=21-	=21-	=21-	=21-	=21-	=21-	=21-	=21-	=21-	=21-	=21-	=21-	=21-	=21-	=21-	=21-
!LO:TX:t=P:problem:kreska pseudotaktowa	!	!	!	!	!	!LO:TX:t=P:problem:kreska pseudotaktowa	!	!	!	!	!	!LO:TX:t=P:problem:kreska pseudotaktowa	!	!	!	!	!	!	!	!	!	!	!
1C/	-mur	.	.	-bus	-rat	0c\	-mur	-num	-bus	-b(us)	-rat	1c\	-mur	-num	-bus	-bus	-rat	0e\	-mur	in-	-tes	a-	mi-
1C/	er-	et	Cli-	Tu-	Pac-	.	.	.	.	.	.	2r	.	.	.	.	.	.	.	.	.	.	.
.	.	.	.	.	.	.	.	.	.	.	.	2c\	er-	et	Cli-	Tu-	Pec-	.	.	.	.	.	.
=22-	=22-	=22-	=22-	=22-	=22-	=22-	=22-	=22-	=22-	=22-	=22-	=22-	=22-	=22-	=22-	=22-	=22-	=22-	=22-	=22-	=22-	=22-	=22-
1D\	-ran-	in-	-en-	-is	-ca-	1F/	er-	et	Cli-	Tu-	Pec-	2B-\	-ran-	in-	-en-	.	-ca-	1f\	er-	-te-	con-	-mae-	-sel-
!	!	!	!	!	!	!	!	!	!	!	!	!LO:TX:t=P:problem:kreska pseudotaktowa	!	!	!	!	!	!	!	!	!	!	!
.	.	.	.	.	.	.	.	.	.	.	.	2A/	.	.	-tes	-is	-tor	.	.	.	.	.	.
!LO:TX:t=P:problem:kreska pseudotaktowa	!	!	!	!	!	!	!	!	!	!	!	!	!	!	!	!	!	!LO:TX:t=P:problem:kreska pseudotaktowa	!	!	!	!	!
1E\	.	-te-	-tes	pe-	-tor	1G/	-ran-	in-	-en-	-is	-ca-	1G/	-tes	ta-	con-	pe-	mi-	1e\	-ran-	.	.	.	.
=23-	=23-	=23-	=23-	=23-	=23-	=23-	=23-	=23-	=23-	=23-	=23-	=23-	=23-	=23-	=23-	=23-	=23-	=23-	=23-	=23-	=23-	=23-	=23-
!	!	!	!	!	!	!LO:TX:t=P:problem:kreska pseudotaktowa	!	!	!	!	!	!	!	!	!	!	!	!	!	!	!	!	!
4F\	-tes	-me-	con-	-ra-	mi-	1A\	.	.	tes	pe-	-tor	2.F/	.	-me-	.	-ra-	-sel-	2c/	.	-me-	.	.	.
4E\	.	.	.	.	.	.	.	.	.	.	.	.	.	.	.	.	.	.	.	.	.	.	.
4D/	.	-ra-	-for-	-nae-	-sel-	.	.	.	.	.	.	.	.	.	.	.	.	1d\	-tes	-ra-	-for-	.	.
!LO:TX:t=P:problem:kreska pseudotaktowa	!	!	!	!	!	!	!	!	!	!	!	!LO:TX:t=P:problem:kreska pseudotaktowa	!	!	!	!	!	!	!	!	!	!	!
4C/	.	.	.	.	.	.	.	.	.	.	.	4E/	.	.	.	.	.	.	.	.	.	.	.
4BB-/	.	.	.	.	.	1B-\	-tes	-te-	con-	-ra-	mi-	2D/	.	.	-for-	.	.	.	.	.	.	.	.
4AA/	.	.	.	.	.	.	.	.	.	.	.	.	.	.	.	.	.	.	.	.	.	.	.
4GG/	.	.	.	.	.	.	.	.	.	.	.	2.G/	.	.	.	.	.	4c/	in	.	.	.	.
!LO:TX:t=P:problem:kreska pseudotaktowa	!	!	!	!	!	!	!	!	!	!	!	!	!	!	!	!	!	!	!	!	!	!	!
4BB-/	.	.	.	.	.	.	.	.	.	.	.	.	.	.	.	.	.	4B-/	.	.	.	.	.
=24-	=24-	=24-	=24-	=24-	=24-	=24-	=24-	=24-	=24-	=24-	=24-	=24-	=24-	=24-	=24-	=24-	=24-	=24-	=24-	=24-	=24-	=24-	=24-
*	*	*	*	*	*	*lig	*	*	*	*	*	*	*	*	*	*	*	*	*	*	*	*	*
2AA/	in	.	.	.	.	1A\	in	-me-	-for-	-mae-	-sel-	.	.	.	.	.	.	0c\	Vi-	.	.	.	.
.	.	.	.	.	.	.	.	.	.	.	.	4F/	.	.	.	.	.	.	.	.	.	.	.
2FF/	.	.	.	.	.	.	.	.	.	.	.	1F/	in	-ra-	.	-mae-	.	.	.	.	.	.	.
1C/	vi-	.	.	.	.	1G/	.	.	.	.	.	.	.	.	.	.	.	.	.	.	.	.	.
.	.	.	.	.	.	.	.	.	.	.	.	2E/	vi-	.	.	.	.	.	.	.	.	.	.
*	*	*	*	*	*	*Xlig	*	*	*	*	*	*	*	*	*	*	*	*	*	*	*	*	*
=25-	=25-	=25-	=25-	=25-	=25-	=25-	=25-	=25-	=25-	=25-	=25-	=25-	=25-	=25-	=25-	=25-	=25-	=25-	=25-	=25-	=25-	=25-	=25-
00FF/	-a	-ta.	-ta.	-na.	-lus.	0F/	vi-	-ra-	.	.	.	00F/;	-a	-ta.	-ta.	-na.	-lus.	00c\;;	-a	-ta.	ta	-na.	-lus.
=26-	=26-	=26-	=26-	=26-	=26-	=26-	=26-	=26-	=26-	=26-	=26-	=26-	=26-	=26-	=26-	=26-	=26-	=26-	=26-	=26-	=26-	=26-	=26-
.	.	.	.	.	.	0F/;;	-a	-ta.	-ta.	-na.	-lus.	.	.	.	.	.	.	.	.	.	.	.	.
==	==	==	==	==	==	==	==	==	==	==	==	==	==	==	==	==	==	==	==	==	==	==	==
*-	*-	*-	*-	*-	*-	*-	*-	*-	*-	*-	*-	*-	*-	*-	*-	*-	*-	*-	*-	*-	*-	*-	*-
!!!system-decoration: [(s1,s2,s3,s4)]
!!!EED: Leszek Kubiak
!!!EST: 2021-03-06
!!!ENC: Krzysztof Stępień
!!!END: 2021-02-23
